!!!!SEGMENT: Jos/Jos0703d-Missa_Dung_aultre_amer-Sanctus.krn
!!!COM: Josquin des Prez
!!!CDT: ~1450-1521/08/27
!!!OPR: Missa D'ung aultre amer--Tu solus
!!!ONM: 4
!!!OTL: Sanctus
!!!AGN: Mass; Sanctus; Missa Brevis
!!!SCT: NJE 7.3
!!!SCA: New Josquin Edition 7.3
!!!jrpid: Jos0703d
!!!voices: 4
!!!voices-OPR: 4
**kern	**text	**kern	**text	**kern	**text	**kern	**text
*staff4	*	*staff3	*	*staff2	*	*staff1	*
*Ivox	*	*Ivox	*	*Ivox	*	*Ivox	*
*I"Bassus	*	*I"Tenor	*	*I"Altus	*	*I"Superius	*
*I'B	*	*I'T	*	*I'A	*	*I'S	*
*clefF4	*	*clefGv2	*	*clefGv2	*	*clefG2	*
*>[A,B,C]	*	*>[A,B,C]	*	*>[A,B,C]	*	*>[A,B,C]	*
*>A	*	*>A	*	*>A	*	*>A	*
*k[b-]	*	*k[b-]	*	*k[b-]	*	*k[b-]	*
*M2/1	*	*M2/1	*	*M2/1	*	*M2/1	*
*met(C|)	*	*met(C|)	*	*met(C|)	*	*met(C|)	*
=1-	=1-	=1-	=1-	=1-	=1-	=1-	=1-
!!section: Sanctus
!!!OMD: Sanctus
!	!	!LO:TX:Z=6:t=T quotes Okeghem song T	!	!	!	!	!
0r	.	0G	San-	0r	.	0g	Sanc-
=2	=2	=2	=2	=2	=2	=2	=2
0r	.	1F	.	0r	.	1a	.
.	.	1G	.	.	.	1g	.
=3	=3	=3	=3	=3	=3	=3	=3
0r	.	0B-	.	0r	.	1.dd	.
.	.	.	.	.	.	4cc\	.
.	.	.	.	.	.	4b-\	.
=4	=4	=4	=4	=4	=4	=4	=4
0r	.	0c	.	0r	.	2a/	.
.	.	.	.	.	.	2.cc\	.
.	.	.	.	.	.	4b-\	.
.	.	.	.	.	.	4a/	.
.	.	.	.	.	.	4g/	.
=5	=5	=5	=5	=5	=5	=5	=5
[0D	Sanc-	1.d	.	[0d	Sanc-	0f	-tus,
.	.	2c\	.	.	.	.	.
=6	=6	=6	=6	=6	=6	=6	=6
0D]	.	1B-	.	0d]	.	1r	.
.	.	1A	.	.	.	1f	sanc-
=7	=7	=7	=7	=7	=7	=7	=7
1GG	-tus,	1.G	-tus,	[0d	-tus,	0g	-tus,
[1B-	sanc-	.	.	.	.	.	.
.	.	4F/	.	.	.	.	.
.	.	4E/	.	.	.	.	.
=8	=8	=8	=8	=8	=8	=8	=8
2B-\]	.	0D	.	0d]	.	1r	.
4A\	.	.	.	.	.	.	.
4G\	.	.	.	.	.	.	.
1A	.	.	.	.	.	1f	sanc-
=9	=9	=9	=9	=9	=9	=9	=9
2.G\	.	1B-	sanc-	[0d	sanc-	1g	.
4F\	.	.	.	.	.	.	.
1D	.	1A	.	.	.	1f	.
=10	=10	=10	=10	=10	=10	=10	=10
0GG	-tus	1B-	.	0d]	.	0g	.
.	.	[1G	.	.	.	.	.
=11	=11	=11	=11	=11	=11	=11	=11
0D	.	1G]	.	0d	-tus,	0a	.
.	.	1F#i	.	.	.	.	.
=12	=12	=12	=12	=12	=12	=12	=12
0r	.	1G	-tus	1B-	sanc-	1b-	-tus,
.	.	[1C	do-	[1c	-tus	2a/	do-
.	.	.	.	.	.	[2g/	.
=13	=13	=13	=13	=13	=13	=13	=13
0r	.	1C]	.	1c]	.	4g/]	.
.	.	.	.	.	.	4f/	.
.	.	.	.	.	.	4e/	.
.	.	.	.	.	.	4d/	.
.	.	1G	-mi-	[1d	do-	1b-	-mi-
=14	=14	=14	=14	=14	=14	=14	=14
1r	.	2F/	-nus	2d\]	.	2a/	-nus
.	.	1G	de-	2d\	-mi-	1b-	de-
1G	do-	.	.	1d	-nus	.	.
.	.	4F/	.	.	.	4a/	.
.	.	4E/	.	.	.	4g/	.
=15	=15	=15	=15	=15	=15	=15	=15
2A\	-mi-	2F/	.	1d	de-	1f	-us.
2B-\	-nus	2D/	.	.	.	.	.
1c	de-	1C	.	[1e-i	.	1r	.
=16	=16	=16	=16	=16	=16	=16	=16
1.B-	-us	0G	-us	2e\-]	.	0r	.
.	.	.	.	2d\	-us	.	.
.	.	.	.	[1d	sa-	.	.
4A\	.	.	.	.	.	.	.
4G\	.	.	.	.	.	.	.
=17	=17	=17	=17	=17	=17	=17	=17
0F	.	1D	sa-	0d_	.	0r	.
.	.	1F	.	.	.	.	.
=18	=18	=18	=18	=18	=18	=18	=18
0G	sa-	0E-i	-ba-	1d]	.	1.g	Ple-
.	.	.	.	1c	-ba-	.	.
.	.	.	.	.	.	2a/	.
=19	=19	=19	=19	=19	=19	=19	=19
[0GG	.	0D	-oth.	[0d	-oth.	2b-\	.
.	.	.	.	.	.	2cc\	.
.	.	.	.	.	.	1dd	-ni
=20	=20	=20	=20	=20	=20	=20	=20
0GG]	.	0B-	Ple-	0d]	.	1d	sunt
.	.	.	.	.	.	[1g	ce-
=21	=21	=21	=21	=21	=21	=21	=21
0AA	-ba-	1c	-ni	0r	.	2g/]	.
.	.	.	.	.	.	4f#i/	.
.	.	.	.	.	.	4g/	.
.	.	1c	sunt	.	.	2.f#i/	.
.	.	.	.	.	.	4e/	.
=22	=22	=22	=22	=22	=22	=22	=22
0GG	-oth	0d	ce-	0B-	Ple-	[0g	-li
=23	=23	=23	=23	=23	=23	=23	=23
0C	Ple-	0e-i	.	0c	.	0g]	.
=24	=24	=24	=24	=24	=24	=24	=24
1.BB-	-ni	1d	.	0d	-ni	0r	.
.	.	[1f	.	.	.	.	.
2C/	.	.	.	.	.	.	.
=25	=25	=25	=25	=25	=25	=25	=25
1D	.	1f]	.	1d	sunt	0r	.
2GG/	sunt	1B-	.	[1d	ce-	.	.
[2G\	ce-	.	.	.	.	.	.
=26	=26	=26	=26	=26	=26	=26	=26
2G\]	.	0A	.	1d]	.	0r	.
4F#i\	.	.	.	.	.	.	.
4E\	.	.	.	.	.	.	.
1F#i	.	.	.	1d	-li	.	.
=27	=27	=27	=27	=27	=27	=27	=27
1.G	-li	0B-	-li	1d	et	0r	.
.	.	.	.	[1d	ter-	.	.
2F\	.	.	.	.	.	.	.
=28	=28	=28	=28	=28	=28	=28	=28
1D	.	1f	et	2d\]	.	0r	.
.	.	.	.	4c\	.	.	.
.	.	.	.	4B-\	.	.	.
1A	et	1e	.	1c	.	.	.
=29	=29	=29	=29	=29	=29	=29	=29
2.D\	ter-	1f	ter-	0d	-ra	1a	et
4E\	.	.	.	.	.	.	.
2F\	.	[1d	.	.	.	2a/	ter-
[2G\	.	.	.	.	.	[2b-\	.
=30	=30	=30	=30	=30	=30	=30	=30
4G\]	.	1d]	.	0r	.	4b-\]	.
4F\	.	.	.	.	.	4a/	.
4E\	.	.	.	.	.	4g/	.
4D\	.	.	.	.	.	4f/	.
1C	.	1e	.	.	.	2.g/	.
.	.	.	.	.	.	4f/	.
=31	=31	=31	=31	=31	=31	=31	=31
0BB-	-ra	1f	.	0r	.	2d/	-ra,
.	.	.	.	.	.	2B-/	et
.	.	1B-	.	.	.	[1b-	ter-
=32	=32	=32	=32	=32	=32	=32	=32
0F	glo-	0c	.	0r	.	2b-\]	.
.	.	.	.	.	.	4a/	.
.	.	.	.	.	.	4g/	.
.	.	.	.	.	.	1a	.
=33	=33	=33	=33	=33	=33	=33	=33
[0BB-	-ri-	1.B-	-ra	[0d	glo-	0b-	-ra
.	.	2A/	.	.	.	.	.
=34	=34	=34	=34	=34	=34	=34	=34
0BB-]	.	1G	.	1d]	.	0r	.
.	.	1F	.	1d	-ri-	.	.
=35	=35	=35	=35	=35	=35	=35	=35
0GG	-a	0G	glo-	[0d	-a	0b-	glo-
=36	=36	=36	=36	=36	=36	=36	=36
0BB-	.	0D	-ri-	0d]	.	1b-	-ri-
.	.	.	.	.	.	1b-	-a
=37	=37	=37	=37	=37	=37	=37	=37
[0AA	tu-	0E	-a	[0c	tu-	1.cc	tu-
.	.	.	.	.	.	2a/	.
=38	=38	=38	=38	=38	=38	=38	=38
0AA]	.	0F	tu-	0c]	.	0a	-a.
=39	=39	=39	=39	=39	=39	=39	=39
1.GG	-a.	0G	-a.	0B-	-a.	1r	.
.	.	.	.	.	.	[1dd	O-
[2G\	O-	.	.	.	.	.	.
=40	=40	=40	=40	=40	=40	=40	=40
1G]	.	1B-	O-	0r	.	2dd\]	.
.	.	.	.	.	.	4cc\	.
.	.	.	.	.	.	4b-\	.
2F\	-san-	1A	.	.	.	2dd\	-san-
[2A\	.	.	.	.	.	[2cc\	.
=41	=41	=41	=41	=41	=41	=41	=41
2A\]	.	0c	-san-	0r	.	2cc\]	.
4G\	.	.	.	.	.	4b-\	.
4F\	.	.	.	.	.	4a/	.
1E	.	.	.	.	.	1g	-na
=42	=42	=42	=42	=42	=42	=42	=42
1D	-na	1d	-na	0r	.	2r	.
.	.	.	.	.	.	2f/	in
2.E-i\	in	2B-\	in	.	.	2.g/	ex-
.	.	2c\	ex-	.	.	.	.
4D\	.	.	.	.	.	4a/	.
=43	=43	=43	=43	=43	=43	=43	=43
2BB-/	.	2.d\	-cel-	1B-	O-	4b-\	.
.	.	.	.	.	.	4a/	.
2D\	ex-	.	.	.	.	4g/	.
.	.	4c\	.	.	.	4f/	.
2.C/	-cel-	2A/	.	1c	.	2.e/	.
.	.	[2G/	.	.	.	.	.
4BB-/	.	.	.	.	.	4d/	.
=44	=44	=44	=44	=44	=44	=44	=44
1GG	.	2G/]	.	1d	-san-	2g/	.
.	.	2B-\	.	.	.	1g	-cel-
1D	.	1A	.	1d	-na	.	.
.	.	.	.	.	.	2f#i/	.
=45	=45	=45	=45	=45	=45	=45	=45
[0GGl	-sis.	[0Gl	-sis.	2d\	in	[0gl	-sis.
.	.	.	.	2d\	ex-	.	.
.	.	.	.	1d	-cel-	.	.
=46	=46	=46	=46	=46	=46	=46	=46
0GG]	.	0G]	.	0dl	-sis.	0g]	.
!!LO:LB:i:g=z
=47||	=47||	=47||	=47||	=47||	=47||	=47||	=47||
!!section: Tu solus
!!!OMD: Tu solus
*>B	*	*>B	*	*>B	*	*>B	*
*k[b-]	*	*k[b-]	*	*k[b-]	*	*k[b-]	*
*M2/1	*	*M2/1	*	*M2/1	*	*M2/1	*
*met(C|)	*	*met(C|)	*	*met(C|)	*	*met(C|)	*
!	!	!	!	!	!	!LO:TX:Z=6:t=Petrucci&colon; b-flat' (2X)	!
0GG;	Tu	0G;	Tu	0d;	Tu	0g;	Tu
=48	=48	=48	=48	=48	=48	=48	=48
0G;	so-	0B-;	so-	0d;	so-	0g;	so-
=49	=49	=49	=49	=49	=49	=49	=49
0F;	-lus	0c;	-lus	0f;	-lus	0a;	-lus
=50	=50	=50	=50	=50	=50	=50	=50
0C	qui	0c	qui	0e	qui	0g	qui
=51	=51	=51	=51	=51	=51	=51	=51
1C	fa-	1c	fa-	1e	fa-	1g	fa-
1C	-cis	1c	-cis	1e	-cis	1g	-cis
=52	=52	=52	=52	=52	=52	=52	=52
1.F	mi-	1A	mi-	1f	mi-	1.a	mi-
.	.	1F	-ra-	1c	-ra-	.	.
2E\	-ra-	.	.	.	.	2g/	-ra-
=53	=53	=53	=53	=53	=53	=53	=53
1D	-bi-	1F	-bi-	2d\	-bi-	1f	-bi-
.	.	.	.	2B-\	.	.	.
1C	-li-	2.G/	-li-	1c	-li-	1e	-li-
.	.	4A/	.	.	.	.	.
=54	=54	=54	=54	=54	=54	=54	=54
0BB-;	-a.	0B-;	-a.	0F;	-a.	0d;	-a.
=55	=55	=55	=55	=55	=55	=55	=55
0GG;	Tu	0d;	Tu	0G;	Tu	0b-;	Tu
=56	=56	=56	=56	=56	=56	=56	=56
0G;	so-	0B-;	so-	0d;	so-	0b-;	so-
=57	=57	=57	=57	=57	=57	=57	=57
0F;	-lus	0c;	-lus	0f;	-lus	0a;	-lus
=58	=58	=58	=58	=58	=58	=58	=58
0C;	cre-	0c;	cre-	0e-;	cre-	0g;	cre-
=59	=59	=59	=59	=59	=59	=59	=59
0E-;	-a-	0G;	-a-	0e-i;	-a-	0g;	-a-
=60	=60	=60	=60	=60	=60	=60	=60
0BB-;	-tor	0B-;	-tor	0d;	-tor	0f;	-tor
=61	=61	=61	=61	=61	=61	=61	=61
0F	qui	0c	qui	0f	qui	0a	qui
=62	=62	=62	=62	=62	=62	=62	=62
1F	cre-	1c	cre-	1f	cre-	1a	cre-
[1G	-a-	[1B-	-a-	[1d	-a-	[1b-	-a-
=63	=63	=63	=63	=63	=63	=63	=63
1G]	.	1B-]	.	1d]	.	1b-]	.
1C	-sti	1c	-sti	1e	-sti	1g	-sti
=64	=64	=64	=64	=64	=64	=64	=64
0C;	nos.	0c;	nos.	0e;	nos.	0g;	nos.
=65	=65	=65	=65	=65	=65	=65	=65
0D	Tu	0A	Tu	0d	Tu	0f	Tu
=66	=66	=66	=66	=66	=66	=66	=66
1E-	so-	1G	so-	1B-	so-	1g	so-
1E-i	-lus	1G	-lus	1B-	-lus	1g	-lus
=67	=67	=67	=67	=67	=67	=67	=67
0BB-	re-	0d	re-	0B-	re-	0f	re-
=68	=68	=68	=68	=68	=68	=68	=68
0C	-dem-	0c	-dem-	0G	-dem-	0e	-dem-
=69	=69	=69	=69	=69	=69	=69	=69
0GG;	-ptor	0B-;	-ptor	0G;	-ptor	0d;	-ptor
=70	=70	=70	=70	=70	=70	=70	=70
0D	qui	0d	qui	0A	qui	0f	qui
=71	=71	=71	=71	=71	=71	=71	=71
1E	re-	1G	re-	1c	re-	1g	re-
1D	-de-	1A	-de-	1d	-de-	1f	-de-
=72	=72	=72	=72	=72	=72	=72	=72
[0G	-mi-	[0B-	-mi-	1.d	-mi-	[0g	-mi-
.	.	.	.	2c\	.	.	.
=73	=73	=73	=73	=73	=73	=73	=73
1G]	.	1B-]	.	1d	.	1g]	.
1F	-sti	1c	-sti	2.f\	-sti	1a	-sti
.	.	.	.	4e\	.	.	.
=74	=74	=74	=74	=74	=74	=74	=74
0F;	nos	0c;	nos	0f;	nos	0a;	nos
=75	=75	=75	=75	=75	=75	=75	=75
0BB-	San-	0d	San-	0f	San-	0b-	San-
=76	=76	=76	=76	=76	=76	=76	=76
1F	-gui-	1c	-gui-	1f	-gui-	1a	-gui-
1G	-ne	1B-	-ne	1e	-ne	1g	-ne
=77	=77	=77	=77	=77	=77	=77	=77
0F	tu-	0c	tu-	0f	tu-	1.a	tu-
.	.	.	.	.	.	2f/	.
=78	=78	=78	=78	=78	=78	=78	=78
0BB-;	-o	0B-;	-o	0d;	-o	0f;	-o
=79	=79	=79	=79	=79	=79	=79	=79
0BB-	pre-	0d	pre-	0f	pre-	0b-	pre-
=80	=80	=80	=80	=80	=80	=80	=80
1F	-ci-	1c	-ci-	1f	-ci-	1a	-ci-
1G	-o-	1B-	-o-	1e	-o-	1g	-o-
=81	=81	=81	=81	=81	=81	=81	=81
[0D	-sis-	[0A	-sis-	[0d	-sis-	[0f#i	-sis-
=82	=82	=82	=82	=82	=82	=82	=82
1D]	.	1A]	.	1d]	.	1f#]	.
1GG	-si-	1G	-si-	1B-	-si-	1g	-si-
=83	=83	=83	=83	=83	=83	=83	=83
0GGl	-mo.	0Gl	-mo.	0dl	-mo.	0gl	-mo.
!!LO:LB:i:g=z
=84||	=84||	=84||	=84||	=84||	=84||	=84||	=84||
!!section: Ad te solum
!!!OMD: Ad te solum
*>C	*	*>C	*	*>C	*	*>C	*
*k[b-]	*	*k[b-]	*	*k[b-]	*	*k[b-]	*
*M2/1	*	*M2/1	*	*M2/1	*	*M2/1	*
*met(C|)	*	*met(C|)	*	*met(C|)	*	*met(C|)	*
1G	Ad	1B-	Ad	0r	.	0r	.
2D\	te	2B-\	te	.	.	.	.
2E\	so-	2B-\	so-	.	.	.	.
=85	=85	=85	=85	=85	=85	=85	=85
2.F\	-lum	1.A	-lum	0r	.	0r	.
4E\	.	.	.	.	.	.	.
2D\	.	.	.	.	.	.	.
2C/	con-	2A/	con-	.	.	.	.
=86	=86	=86	=86	=86	=86	=86	=86
2.BB-/	-fu-	2.B-\	-fu-	0r	.	0r	.
4C/	.	4A/	.	.	.	.	.
2BB-/	.	2G/	.	.	.	.	.
2AA/	-gi-	2F#i/	-gi-	.	.	.	.
=87	=87	=87	=87	=87	=87	=87	=87
0GG	-mus.	0G	-mus.	0r	.	0r	.
=88	=88	=88	=88	=88	=88	=88	=88
0r	.	0r	.	1g	In	1b-	In
.	.	.	.	2d\	te	2b-\	te
.	.	.	.	2e\	so-	2b-\	so-
=89	=89	=89	=89	=89	=89	=89	=89
0r	.	0r	.	2.f\	-lum	1.a	-lum
.	.	.	.	4e\	.	.	.
.	.	.	.	2d\	.	.	.
.	.	.	.	2c\	con-	2a/	con-
=90	=90	=90	=90	=90	=90	=90	=90
0r	.	0r	.	2.B-\	-fi-	2.b-\	-fi-
.	.	.	.	4c\	.	4a/	.
.	.	.	.	2B-\	.	2g/	.
.	.	.	.	2A/	-di-	2f#i/	-di-
=91	=91	=91	=91	=91	=91	=91	=91
1r	.	1r	.	1G	-mus.	1g	-mus.
2r	.	2r	.	2r	.	2r	.
2G\	Nec	2d\	Nec	2g\	Nec	2b-\	Nec
=92	=92	=92	=92	=92	=92	=92	=92
2G\	a-	2d\	a-	2g\	a-	2b-\	a-
2G\	-li-	2d\	-li-	2g\	-li-	2b-\	-li-
2G\	-um	2d\	-um	2g\	-um	2b-\	-um
2G\	ad-	2d\	ad-	2g\	ad-	2b-\	ad-
=93	=93	=93	=93	=93	=93	=93	=93
1D	-o-	1d	-o-	4f\	-o-	1a	-o-
.	.	.	.	4e\	.	.	.
.	.	.	.	4d\	.	.	.
.	.	.	.	4c\	.	.	.
1E-i	-ra-	1G	-ra-	2B-\	-ra-	1g	-ra-
.	.	.	.	2c\	.	.	.
=94	=94	=94	=94	=94	=94	=94	=94
1D	-mus,	1A	-mus,	1d	-mus,	1f	-mus,
1r	.	1r	.	1r	.	1r	.
=95	=95	=95	=95	=95	=95	=95	=95
0G;	Ie-	0G;	Ie-	0d;	Ie-	0g;	Ie-
=96	=96	=96	=96	=96	=96	=96	=96
0G;	-su	0B-;	-su	0g;	-su	0d;	-su
=97	=97	=97	=97	=97	=97	=97	=97
0C;	Chri-	0c;	Chri-	0g;	Chri-	0e;	Chri-
=98	=98	=98	=98	=98	=98	=98	=98
0D;	-ste.	0A;	-ste.	0f;	-ste.	0d;	-ste.
=99	=99	=99	=99	=99	=99	=99	=99
*M3/1	*	*M3/1	*	*M3/1	*	*M3/1	*
*met(3)	*	*met(3)	*	*met(3)	*	*met(3)	*
1D	Ad	1B-	Ad	0.r	.	0.r	.
1D	te	1B-	te	.	.	.	.
1D	pre-	1B-	pre-	.	.	.	.
=100	=100	=100	=100	=100	=100	=100	=100
1.E-i	-ces	1.c	-ces	0.r	.	0.r	.
2D\	.	2B-\	.	.	.	.	.
1C	.	1A	.	.	.	.	.
=101	=101	=101	=101	=101	=101	=101	=101
1BB-	ef-	1G	ef-	0.r	.	0.r	.
1GG	-fun-	1G	-fun-	.	.	.	.
1AA	-di-	1F#i	-di-	.	.	.	.
=102	=102	=102	=102	=102	=102	=102	=102
0.GG	-mus.	0G	-mus.	0.r	.	0.r	.
.	.	1r	.	.	.	.	.
=103	=103	=103	=103	=103	=103	=103	=103
0.r	.	1d	Ex-	1f	Ex-	1b-	Ex-
.	.	1d	-au-	1f	-au-	1b-	-au-
.	.	1d	-di	1f	-di	1b-	-di
=104	=104	=104	=104	=104	=104	=104	=104
0.r	.	1.e-i	quod	1.g	quod	1.cc	quod
.	.	2d\	.	2f\	.	2b-\	.
.	.	1c	.	1e	.	1a	.
=105	=105	=105	=105	=105	=105	=105	=105
0.r	.	1B-	sup-	1d	sup-	1g	sup-
.	.	1G	-pli-	1d	-pli-	1g	-pli-
.	.	1A	-ca-	1c	-ca-	1f#i	-ca-
=106	=106	=106	=106	=106	=106	=106	=106
1r	.	0G	-mus,	0d	-mus,	0g	-mus,
1r	.	.	.	.	.	.	.
1G	Et	1d	Et	1B-	Et	1b-	Et
=107	=107	=107	=107	=107	=107	=107	=107
1F	con-	1d	con-	1f	con-	1a	con-
1G	.	1B-	.	1d	.	1b-	.
1E	-ce-	1c	-ce-	1e	-ce-	1g	-ce-
=108	=108	=108	=108	=108	=108	=108	=108
0D	-de	1d	-de	1f	-de	0f	-de
.	.	1f	.	1d	.	.	.
1C	quod	1e	quod	1e	quod	1g	quod
=109	=109	=109	=109	=109	=109	=109	=109
1F	pe-	1d	pe-	1f	pe-	1a	pe-
1G	.	1B-	.	1d	.	1b-	.
1E	-ti-	1c	-ti-	1e	-ti-	1g	-ti-
=110	=110	=110	=110	=110	=110	=110	=110
0D;	-mus,	0d;	-mus,	0A; 0f;	-mus,	0a;	-mus,
1r	.	1r	.	1r	.	1r	.
=111	=111	=111	=111	=111	=111	=111	=111
0.G;	rex	0.B-;	rex	0.d;	rex	0.g;	rex
=112	=112	=112	=112	=112	=112	=112	=112
0.C;	be-	0.c;	be-	0.e;	be-	0.g;	be-
=113	=113	=113	=113	=113	=113	=113	=113
0.D;	-ni-	0.A;	-ni-	0.d;	-ni-	0.f#i;	-ni-
=114	=114	=114	=114	=114	=114	=114	=114
0.GGl	-gne.	0.Gl	-gne.	0.dl	-gne.	0.gl	-gne.
==	==	==	==	==	==	==	==
*-	*-	*-	*-	*-	*-	*-	*-
!!!RDF**kern: l=long note in original notation
!!!RDF**kern: i=editorial accidental
!!!RDF**kern: V=start of tuplet marker
!!!RDF**kern: Z=end of tuplet marker
!!!ENC: Jesse Rodin 2012/02/24
!!!END: 2012/02/24/
!!!EED: Jesse Rodin
!!!EEV: 2012/03/22/
!!attribution-level@Jos: 2 (provisionally attributable [parentheses checkmark])
!!!ONB: Translated from MusicXML and edited on 2012/03/22/ by Craig Sapp
!!muse2ps: T^@{OPR}^u^@{ONM}{. }@{OTL}^C^@{COM}^i2I150v90,90,90,120c122z18l2700t130
